X: 10747
T: Dr. Gilbert's
R: reel
M: 4/4
K: Edorian
gf|:eBBA ~B3c|dBA=c BAGF|EDB,D FG FG|EDB,E DB,A,G,|
B,E~E2 EDB,D|GE~E2 EFGA|(3Bcd ed Bdgb|afdf efgf:|
|:eB~B2 gB~B2|defg afdf|~g2 bg fgaf|egfd eBB2|
afdf edBc|dBAF AFDF|(3EFG =cA Bdgb|1 afdf efgf:|2 afdf e2||

